X:134
T:Behind the Haystack
M:6/8
L:1/8
R:jig
K:D
A|:d2e fdB|d2e fdB|AFE EFE|AFE EFA|
d2e fdB|d2e fdB|AFD D2B|AFD D2A:|
|:B2B BAF|ABc d2B|AFE EFE|AFE EFA|
B2B BAF|ABc d2B|AFD D2B|AFD D3:|
|:g3 f3|ede fdB|AFE EFE|AFE EFA|
gag fgf|ede fdB|AFD D2B|AFD D2:|
